src/assets/filled/Monero.svg

<svg width="24" height="24" viewBox="0 0 24 24"  xmlns="http://www.w3.org/2000/svg">
<path d="M3.17996 15.031C2.82996 15.031 2.57996 15.381 2.70996 15.701C4.17996 19.401 7.78996 22.001 12 22.001C16.22 22.001 19.83 19.381 21.3 15.671C21.43 15.351 21.17 15.001 20.83 15.001H17.5C17.22 15.001 17 14.781 17 14.501V11.761C17 10.841 15.85 10.411 15.25 11.111L12.38 14.541C12.18 14.781 11.81 14.781 11.61 14.541L8.73996 11.111C8.14996 10.411 6.99996 10.841 6.99996 11.761V14.501C6.99996 14.781 6.77996 15.001 6.49996 15.001L3.17996 15.031Z" />
<path d="M22 12.1397C22 12.4497 21.98 12.7597 21.94 13.0597C21.91 13.3097 21.69 13.4997 21.43 13.4997H19C18.72 13.4997 18.5 13.2797 18.5 12.9997V11.8997C18.5 10.8897 17.96 9.90973 17.04 9.48973C16.01 9.01973 14.84 9.27973 14.1 10.1497L12.38 12.1997C12.18 12.4397 11.81 12.4397 11.61 12.1997L9.88 10.1297C9.16 9.27972 8 9.01973 6.96 9.48973C6.04 9.90973 5.5 10.8897 5.5 11.8997V12.8797C5.5 13.2997 5.28 13.5197 5 13.5197L2.56 13.5297C2.31 13.5297 2.08 13.3397 2.05 13.0897C2.02 12.7297 2 12.3697 2 11.9997C2 5.94973 7.39 1.13972 13.63 2.12972C18.46 2.88972 22.07 7.23973 22 12.1397Z" />
</svg>

<?xml version="1.0" encoding="UTF-8"?>
<svg width="24" height="24" viewBox="0 0 24 24" xmlns="http://www.w3.org/2000/svg">
 <path d="m3.18 15.031c-0.35 0-0.6 0.35-0.47 0.67 1.47 3.7 5.08 6.3 9.29 6.3 4.22 0 7.83-2.62 9.3-6.33 0.13-0.32-0.13-0.67-0.47-0.67h-3.33c-0.28 0-0.5-0.22-0.5-0.5v-2.74c0-0.92-1.15-1.35-1.75-0.65l-2.87 3.43c-0.2 0.24-0.57 0.24-0.77 0l-2.87-3.43c-0.59-0.7-1.74-0.27-1.74 0.65v2.74c0 0.28-0.22 0.5-0.5 0.5l-3.32 0.03z"/>
 <path d="m22 12.14c0 0.31-0.02 0.62-0.06 0.92-0.03 0.25-0.25 0.44-0.51 0.44h-2.43c-0.28 0-0.5-0.22-0.5-0.5v-1.1c0-1.01-0.54-1.99-1.46-2.41-1.03-0.47-2.2-0.21-2.94 0.65997l-1.72 2.05c-0.2 0.24-0.57 0.24-0.77 0l-1.73-2.07c-0.72-0.84998-1.88-1.11-2.92-0.63997-0.92 0.42-1.46 1.4-1.46 2.41v0.98c0 0.42-0.22 0.64-0.5 0.64l-2.44 0.01c-0.25 0-0.48-0.19-0.51-0.44-0.03-0.36-0.05-0.72-0.05-1.09 0-6.05 5.39-10.86 11.63-9.87 4.83 0.76 8.44 5.11 8.37 10.01z"/>
</svg>
